X:66
T:Reel 66
M:4/4
K:Dmaj
L:1/8
AG|FDED A,DCD|EDCD EGFE|FDFD A,DFD|ECA,B, C2EG|FDFD A,DFD|ECA,C ECA,G|FDED A,DFD|ECDE D2|FA| (3dcB AF BdFA| (3BcB ce dcBc| (3dcB AG FABF| (3EFE =cA G2 (3ABc |defd cdec|dcBc A2Bc|dBcA BGAF|EDCD DGFG|
